images/class_icons/nightshroud.svg

<svg height="400" viewBox="0 0 400 400" width="400" xmlns="http://www.w3.org/2000/svg"><path d="m193.954 5.306c-32.143 2.255-58.835 10.056-85.187 24.897-10.746 6.052-27.748 18.088-32.113 22.733l-.403.428.605-.232c.549-.212 2.37-1.041 7.726-3.517 18.398-8.507 38.667-13.597 59.053-14.829 3.458-.209 17.139-.209 19.953 0 7.513.558 13.259 1.247 19.251 2.31 64.399 11.425 116.281 60.094 131.975 123.804 5.339 21.675 6.18 45.036 2.418 67.182-12.409 73.059-71.222 128.748-145.014 137.312-8.953 1.039-25.673 1.168-34.563.267-20.469-2.074-37.546-6.937-57.306-16.32-1.441-.684-2.979-1.386-3.417-1.56l-.798-.317.395.417c1.502 1.585 8.789 7.411 13.741 10.985 25.453 18.372 54.133 30.076 85.343 34.828 7.752 1.181 4.56 1.066 29.552 1.066h22.245l4.233-.671c34.671-5.498 62.836-17.027 89.083-36.465 45.79-33.913 74.018-84.916 78.76-142.307.297-3.594.248-25.825-.066-29.828-2.025-25.84-8.608-49.587-20.133-72.624-31.548-63.064-95.931-104.894-165.448-107.493-6.464-.241-16.888-.276-19.885-.066m-84.053 73.502c-55.127 5.237-100.156 47.612-108.944 102.522-.864 5.397-1.009 8.831-.916 21.599.089 12.065.144 12.75 1.651 20.632 12.095 63.248 71.452 106.192 135.493 98.027 56.328-7.181 100.218-52.354 105.865-108.958 5.72-57.343-28.987-110.438-83.964-128.446-8.259-2.706-20.155-5.044-27.679-5.441-3.771-.199-19.215-.152-21.506.065" fill-rule="evenodd"/></svg>

<svg id="svg" xmlns="http://www.w3.org/2000/svg" xmlns:xlink="http://www.w3.org/1999/xlink" width="400" height="400" viewBox="0, 0, 400,400"><g id="svgg"><path id="path0" d="M193.954 5.306 C 161.811 7.561,135.119 15.362,108.767 30.203 C 98.021 36.255,81.019 48.291,76.654 52.936 L 76.251 53.364 76.856 53.132 C 77.405 52.920,79.226 52.091,84.582 49.615 C 102.980 41.108,123.249 36.018,143.635 34.786 C 147.093 34.577,160.774 34.577,163.588 34.786 C 171.101 35.344,176.847 36.033,182.839 37.096 C 247.238 48.521,299.120 97.190,314.814 160.900 C 320.153 182.575,320.994 205.936,317.232 228.082 C 304.823 301.141,246.010 356.830,172.218 365.394 C 163.265 366.433,146.545 366.562,137.655 365.661 C 117.186 363.587,100.109 358.724,80.349 349.341 C 78.908 348.657,77.370 347.955,76.932 347.781 L 76.134 347.464 76.529 347.881 C 78.031 349.466,85.318 355.292,90.270 358.866 C 115.723 377.238,144.403 388.942,175.613 393.694 C 183.365 394.875,180.173 394.760,205.165 394.760 L 227.410 394.760 231.643 394.089 C 266.314 388.591,294.479 377.062,320.726 357.624 C 366.516 323.711,394.744 272.708,399.486 215.317 C 399.783 211.723,399.734 189.492,399.420 185.489 C 397.395 159.649,390.812 135.902,379.287 112.865 C 347.739 49.801,283.356 7.971,213.839 5.372 C 207.375 5.131,196.951 5.096,193.954 5.306 M109.901 78.808 C 54.774 84.045,9.745 126.420,0.957 181.330 C 0.093 186.727,-0.052 190.161,0.041 202.929 C 0.130 214.994,0.185 215.679,1.692 223.561 C 13.787 286.809,73.144 329.753,137.185 321.588 C 193.513 314.407,237.403 269.234,243.050 212.630 C 248.770 155.287,214.063 102.192,159.086 84.184 C 150.827 81.478,138.931 79.140,131.407 78.743 C 127.636 78.544,112.192 78.591,109.901 78.808 " stroke="none" fill="#000000" fill-rule="evenodd"></path></g></svg>
